public/img/clients/worldwidewebfoundation.svg

<svg width="200" height="100" viewBox="0 0 200 100" fill="none" xmlns="http://www.w3.org/2000/svg">
<path fill-rule="evenodd" clip-rule="evenodd" d="M53.0934 58.2161C53.589 57.4525 54.0213 56.6522 54.3871 55.8232C54.3549 55.3239 54.2994 54.8243 54.2202 54.326C53.5936 50.3828 51.5325 46.8212 48.4493 44.3155C49.3748 46.1313 50.0008 48.088 50.3 50.1099H50.39C50.5502 51.1254 50.6304 52.1519 50.63 53.1799C50.6338 56.8759 49.5564 60.485 47.5409 63.5666C47.8396 63.3877 48.1328 63.1987 48.42 62.9999C50.2792 61.7305 51.8677 60.1044 53.0934 58.2161ZM43.5692 41.6185C44.8188 42.8541 45.8648 44.2904 46.6597 45.8754C47.9894 48.5265 48.5658 51.4918 48.326 54.448C48.0862 57.4041 47.0395 60.2377 45.3 62.6399C44.5346 63.6974 43.6439 64.6522 42.6504 65.4852L42.6504 65.4852L42.6 65.4957C40.5123 65.9293 38.3588 65.9388 36.2675 65.5237C34.1761 65.1086 32.1894 64.2773 30.4256 63.0793C28.6618 61.8813 27.1568 60.341 26 58.5499C24.7346 56.6046 23.8882 54.4434 23.4869 52.2011C23.9905 50.505 24.7737 48.8876 25.82 47.4199C27.0194 45.7189 28.5466 44.2747 30.3119 43.1722C32.0773 42.0697 34.0452 41.3312 36.1 40.9999C36.9201 40.8684 37.7494 40.8015 38.58 40.7999C40.2872 40.7997 41.9716 41.0795 43.5692 41.6185ZM52.9063 63.6959C52.0123 64.6101 51.027 65.443 49.96 66.1799C47.4555 67.901 44.5824 68.9857 41.5885 69.3567C39.4959 70.6325 37.172 71.4832 34.75 71.8599C34.3538 71.9221 33.9559 71.9716 33.5569 72.0086C34.035 72.1747 34.5217 72.3178 35.0154 72.437C37.0191 72.9211 39.0988 73.0037 41.1347 72.6802C43.1705 72.3567 45.1221 71.6335 46.8771 70.5522C48.632 69.4708 50.1556 68.0528 51.36 66.3799V66.3299C51.9617 65.4967 52.4782 64.6143 52.9063 63.6959ZM27.6949 68.3691C29.249 68.8807 30.8789 69.1564 32.53 69.1799C33.3414 69.178 34.1488 69.1137 34.9455 68.9885C29.9032 67.8049 25.785 64.6069 23.2199 60.3801C23.9119 63.4272 25.4709 66.1999 27.6949 68.3691ZM42.67 32.4499C50.1846 33.8695 55.4881 40.4342 55.8467 47.9546C55.6841 47.6529 55.5132 47.3554 55.334 47.0623C54.0347 44.9374 52.3271 43.091 50.31 41.6299C48.4243 40.253 46.2954 39.2469 44.0365 38.664C43.6514 38.3287 43.2521 38.0087 42.8396 37.7049C40.8393 36.2315 38.5671 35.1686 36.1541 34.5774C34.8685 34.2624 33.5566 34.0846 32.24 34.0449C34.5202 32.8316 37.069 32.1839 39.67 32.1699C40.6765 32.1715 41.6806 32.2653 42.67 32.4499ZM38.2434 38.1161C36.3957 37.3703 34.4186 36.9686 32.41 36.9399C30.772 36.9438 29.15 37.2021 27.6006 37.7011C25.5623 39.9789 24.1506 42.7787 23.5464 45.8253C23.4333 46.3958 23.3496 46.9691 23.295 47.5431C23.6247 46.9592 23.9866 46.3906 24.38 45.8399C25.7962 43.8485 27.5938 42.158 29.6683 40.8666C31.7429 39.5752 34.0532 38.7086 36.4653 38.317C37.0555 38.2212 37.6489 38.1542 38.2434 38.1161ZM20.9408 54.93C20.7703 56.5779 20.8147 58.2547 21.0838 59.9184C21.4356 62.0933 22.1589 64.1684 23.2033 66.0618C21.1275 64.545 19.4377 62.5523 18.2802 60.2444C16.9505 57.5933 16.3742 54.6281 16.6139 51.6719C16.8537 48.7157 17.9004 45.8821 19.64 43.4799C20.5521 42.2197 21.6422 41.1052 22.8721 40.1691C21.8151 42.0598 21.0736 44.1137 20.68 46.2499C20.1217 49.2283 20.246 52.1801 20.9408 54.93ZM27.8513 71.6248C25.7639 71.1549 23.761 70.3354 21.93 69.1922C18.9582 67.3365 16.5541 64.6993 14.9807 61.5689C13.4072 58.4386 12.7251 54.9358 13.009 51.4437C13.2928 47.9517 14.5317 44.6051 16.59 41.7699C18.0246 39.7745 19.8406 38.0834 21.933 36.7943C23.7 35.7057 25.6345 34.922 27.6554 34.4734C28.0885 34.1207 28.5371 33.7858 29 33.4699C31.0609 32.0501 33.3849 31.0569 35.8354 30.549C38.2859 30.041 40.8133 30.0285 43.2687 30.5121C45.7241 30.9957 48.058 31.9657 50.1328 33.365C52.2076 34.7643 53.9815 36.5646 55.35 38.6599L55.37 38.6899C58.2282 43.0735 59.2621 48.3997 58.2516 53.5343C58.172 53.9387 58.0803 54.3393 57.9767 54.7357C58.0708 55.5033 58.1187 56.2761 58.12 57.0499C58.1235 61.0313 56.863 64.911 54.52 68.1299C53.0949 70.1028 51.2942 71.7748 49.2211 73.0499C47.1481 74.3249 44.8436 75.1779 42.44 75.5599C41.4706 75.711 40.4911 75.7879 39.51 75.7899C35.6052 75.7876 31.8022 74.5444 28.65 72.2399C28.3777 72.0415 28.1114 71.8363 27.8513 71.6248ZM76.8 48.1201C76.6863 47.3313 76.526 46.55 76.32 45.7801L74.89 40.6201H72.89L71.49 45.8101C71.2829 46.5465 71.1193 47.2945 71 48.0501C70.9823 47.3279 70.902 46.6085 70.76 45.9001L69.51 40.6201H67.51L70 50.1401H71.91L73.63 44.0701C73.787 43.509 73.881 42.9321 73.91 42.3501C73.9364 42.9331 74.0338 43.5107 74.2 44.0701L75.85 50.1401H77.85L80.34 40.6201H78.34L77.1 45.7801C76.9117 46.5462 76.811 47.3313 76.8 48.1201ZM89.34 45.4C89.34 44.6043 89.024 43.8413 88.4613 43.2787C87.8987 42.7161 87.1357 42.4 86.34 42.4C85.5444 42.4 84.7813 42.7161 84.2187 43.2787C83.6561 43.8413 83.34 44.6043 83.34 45.4C83.34 46.1956 83.6561 46.9587 84.2187 47.5213C84.7813 48.0839 85.5444 48.4 86.34 48.4C87.1357 48.4 87.8987 48.0839 88.4613 47.5213C89.024 46.9587 89.34 46.1956 89.34 45.4ZM90 48.93C89.0968 49.8077 87.9037 50.3247 86.6456 50.3836C85.3876 50.4426 84.1514 50.0394 83.17 49.25C82.6253 48.8132 82.1793 48.266 81.8615 47.6442C81.5437 47.0225 81.3613 46.3405 81.3263 45.6432C81.2914 44.9458 81.4046 44.249 81.6586 43.5986C81.9127 42.9482 82.3017 42.3591 82.8 41.87C83.7647 40.9341 85.0559 40.4106 86.4 40.4106C87.7441 40.4106 89.0353 40.9341 90 41.87C90.4687 42.3307 90.8409 42.8801 91.095 43.4862C91.3491 44.0922 91.4799 44.7428 91.4799 45.4C91.4799 46.0572 91.3491 46.7078 91.095 47.3138C90.8409 47.9199 90.4687 48.4693 90 48.93ZM97.5 43.4701C97.5 44.5701 96.76 44.6801 95.5 44.6801H95.19V42.1801H95.5C96.77 42.1801 97.5 42.3701 97.5 43.4701ZM95.19 45.6901L97.69 50.1401H100L97.45 45.8101C98.0508 45.7355 98.6018 45.4384 98.9942 44.9774C99.3867 44.5164 99.5921 43.9251 99.57 43.3201C99.57 41.5201 98.43 40.6201 96.11 40.6201H93.19V50.1401H95.19V45.6901ZM101.23 40.6201H103.27V48.4101H106.52V50.1401H101.23V40.6201ZM114.06 45.42C114.06 47.54 113.07 48.42 111 48.42L109.86 48.49V42.42H111C113.06 42.42 114.06 43.3 114.06 45.42ZM110.42 40.62H107.83L107.8 50.14H110.61C111.936 50.2758 113.269 49.9662 114.4 49.26C114.989 48.8107 115.459 48.224 115.77 47.5512C116.08 46.8783 116.221 46.1398 116.18 45.4C116.221 44.6637 116.082 43.9285 115.775 43.2578C115.468 42.5872 115.003 42.001 114.42 41.55C113.23 40.7961 111.82 40.4682 110.42 40.62ZM130 45.7801C130.206 46.55 130.366 47.3313 130.48 48.1201C130.489 47.3305 130.593 46.5449 130.79 45.7801L132 40.6201H134L131.52 50.1401H129.52L127.81 44.0701C127.644 43.5107 127.546 42.9331 127.52 42.3501C127.491 42.9321 127.397 43.509 127.24 44.0701L125.52 50.1401H123.52L121.03 40.6201H123.03L124.28 45.9001C124.432 46.6076 124.522 47.327 124.55 48.0501C124.669 47.2945 124.833 46.5465 125.04 45.8101L126.44 40.6201H128.44L130 45.7801ZM135.35 40.6201H137.39V50.1401H135.35V40.6201ZM142.73 48.4201C144.81 48.4201 145.79 47.5401 145.79 45.4201C145.79 43.3001 144.79 42.4201 142.73 42.4201H141.6V48.4901L142.73 48.4201ZM139.56 40.6201H142.16C143.56 40.4699 144.97 40.7976 146.16 41.5501C146.74 42.0034 147.202 42.5901 147.507 43.2605C147.812 43.9308 147.95 44.6648 147.91 45.4001C147.953 46.1401 147.812 46.8792 147.502 47.5524C147.192 48.2255 146.72 48.812 146.13 49.2601C145.005 49.9698 143.673 50.2798 142.35 50.1401H139.59L139.56 40.6201ZM155.2 40.6201H149.6V50.1401H155.2V48.4101H151.63V46.0201H155.2V44.2901H151.63V42.3401H155.2V40.6201ZM169.32 45.7801C169.531 46.5488 169.691 47.3305 169.8 48.1201C169.814 47.3309 169.918 46.5458 170.11 45.7801L171.35 40.6201H173.35L170.86 50.1401H168.86L167.16 44.0701C166.99 43.5113 166.889 42.9336 166.86 42.3501C166.831 42.9321 166.737 43.509 166.58 44.0701L164.86 50.1401H163L160.51 40.6201H162.51L163.77 45.9001C163.914 46.6087 164.001 47.3277 164.03 48.0501C164.157 47.2951 164.324 46.5474 164.53 45.8101L165.92 40.6201H167.92L169.32 45.7801ZM180.29 40.6201H174.68V50.1401H180.29V48.4101H176.72V46.0201H180.29V44.2901H176.72V42.3401H180.29V40.6201ZM185.13 48.55C186.13 48.55 186.69 48.09 186.69 47.24C186.69 46.39 186.17 46 185.16 46H184.33V48.55H185.13ZM184.78 44.43C185.91 44.43 186.47 44.17 186.47 43.29C186.47 42.41 185.97 42.19 184.82 42.19H184.33V44.43H184.78ZM182.29 40.62H184.08C185.145 40.5189 186.219 40.6768 187.21 41.08C187.566 41.2772 187.862 41.5674 188.067 41.9196C188.271 42.2719 188.376 42.6729 188.37 43.08C188.37 44.22 187.7 44.9 186.37 45.08C187.91 45.31 188.7 46.08 188.7 47.37C188.708 47.8161 188.594 48.2558 188.37 48.6418C188.146 49.0277 187.821 49.3452 187.43 49.56C186.298 50.0287 185.069 50.2107 183.85 50.09H182.29V40.62ZM74.45 56.6101H69.74V66.1301H70.61V61.2201H74.31V60.4001H70.61V57.4201H74.45V56.6101ZM85.53 61.3899C85.5221 60.5653 85.2705 59.7615 84.8069 59.0796C84.3432 58.3977 83.6883 57.8682 82.9244 57.5577C82.1605 57.2471 81.3219 57.1694 80.514 57.3344C79.706 57.4994 78.965 57.8996 78.384 58.4848C77.803 59.0699 77.408 59.8138 77.2488 60.6229C77.0896 61.432 77.1733 62.2701 77.4893 63.0317C77.8053 63.7933 78.3395 64.4445 79.0247 64.9033C79.7098 65.362 80.5154 65.6079 81.34 65.6099C81.8924 65.6086 82.4391 65.4983 82.9488 65.2854C83.4586 65.0725 83.9213 64.7611 84.3105 64.3691C84.6997 63.9771 85.0077 63.5122 85.217 63.001C85.4263 62.4898 85.5326 61.9423 85.53 61.3899ZM85 64.9199C84.0359 65.863 82.7387 66.3877 81.39 66.3799C80.725 66.3844 80.0657 66.2577 79.4497 66.0072C78.8337 65.7567 78.2731 65.3872 77.8 64.9199C77.3329 64.4553 76.9622 63.9029 76.7092 63.2945C76.4563 62.6861 76.326 62.0338 76.326 61.3749C76.326 60.716 76.4563 60.0637 76.7092 59.4553C76.9622 58.8469 77.3329 58.2945 77.8 57.8299C78.7706 56.9055 80.0596 56.3899 81.4 56.3899C82.7404 56.3899 84.0294 56.9055 85 57.8299C85.4671 58.2945 85.8378 58.8469 86.0908 59.4553C86.3438 60.0637 86.474 60.716 86.474 61.3749C86.474 62.0338 86.3438 62.6861 86.0908 63.2945C85.8378 63.9029 85.4671 64.4553 85 64.9199ZM89.47 62.8301V56.6101H88.62V62.5501C88.62 65.1201 89.75 66.3801 92.08 66.3801C94.41 66.3801 95.55 65.1201 95.55 62.5501V56.6101H94.68V62.8301C94.68 64.6901 93.85 65.6101 92.08 65.6101C90.31 65.6101 89.47 64.6901 89.47 62.8301ZM98.18 56.21L104.91 64.17V56.61H105.73V66.41L98.99 58.43V66.13H98.18V56.21ZM110.51 65.3801H110L109.23 65.3601V57.3601H110.23C111.8 57.3601 112.92 57.3601 113.8 58.3601C114.489 59.2044 114.844 60.2715 114.8 61.3601C114.853 62.0128 114.75 62.6687 114.5 63.2738C114.249 63.8789 113.859 64.4157 113.36 64.8401C112.49 65.3135 111.493 65.5023 110.51 65.3801ZM109.84 56.6101H108.37L108.4 66.1301H110.28C111.82 66.1301 113.05 66.0901 114.14 65.2501C114.693 64.774 115.128 64.1754 115.409 63.5018C115.69 62.8282 115.811 62.0983 115.76 61.3701C115.817 60.5655 115.662 59.76 115.312 59.0336C114.961 58.3073 114.426 57.6855 113.76 57.2301C112.75 56.6101 111.48 56.6101 109.84 56.6101ZM122.18 62.16L120.55 58L118.86 62.14L122.18 62.16ZM120.6 56.23L124.6 66.13H123.66L122.45 62.91H118.56L117.29 66.13H116.41L120.6 56.23ZM124.3 57.4201H126.93V66.1301H127.79V57.4201H130.41V56.6101H124.3V57.4201ZM133.02 56.6101H132.15V66.1301H133.02V56.6101ZM143.776 59.0786C144.24 59.7607 144.492 60.5649 144.5 61.3899C144.503 61.9414 144.397 62.4881 144.188 62.9987C143.979 63.5093 143.672 63.9738 143.284 64.3656C142.896 64.7575 142.434 65.0691 141.926 65.2825C141.417 65.496 140.872 65.6073 140.32 65.6099C139.495 65.6099 138.688 65.3657 138.002 64.9081C137.315 64.4506 136.78 63.8001 136.462 63.0386C136.145 62.2771 136.06 61.4387 136.218 60.629C136.376 59.8193 136.77 59.0744 137.35 58.4883C137.931 57.9022 138.672 57.5009 139.48 57.3351C140.288 57.1694 141.128 57.2465 141.892 57.5567C142.657 57.867 143.312 58.3965 143.776 59.0786ZM140.32 66.3799C141.665 66.385 142.958 65.8606 143.92 64.9199C144.394 64.4594 144.772 63.9084 145.029 63.2995C145.287 62.6905 145.42 62.0361 145.42 61.3749C145.42 60.7137 145.287 60.0593 145.029 59.4503C144.772 58.8414 144.394 58.2904 143.92 57.8299C142.949 56.9055 141.66 56.3899 140.32 56.3899C138.98 56.3899 137.691 56.9055 136.72 57.8299C136.253 58.2945 135.882 58.8469 135.629 59.4553C135.376 60.0637 135.246 60.716 135.246 61.3749C135.246 62.0338 135.376 62.6861 135.629 63.2945C135.882 63.9029 136.253 64.4553 136.72 64.9199C137.194 65.3884 137.756 65.7586 138.374 66.0091C138.992 66.2597 139.653 66.3857 140.32 66.3799ZM147.63 56.21L154.37 64.17V56.61H155.18V66.41L148.44 58.43V66.13H147.63V56.21Z" fill="black"/>
</svg>

<svg xmlns="http://www.w3.org/2000/svg" focusable="false" role="img" viewBox="0 0 200 100" fill="currentColor">
  <path fill-rule="evenodd" d="M53.093 58.216c.496-.764.928-1.564 1.294-2.393a16.166 16.166 0 00-5.938-11.508A18.83 18.83 0 0150.3 50.11h.09c.16 1.015.24 2.042.24 3.07a18.94 18.94 0 01-3.09 10.387c.3-.18.593-.368.88-.567a17 17 0 004.673-4.784zM43.57 41.618A16.199 16.199 0 0145.3 62.64a15.81 15.81 0 01-2.65 2.845l-.05.01A15.91 15.91 0 0126 58.55a17.197 17.197 0 01-2.513-6.349 16.158 16.158 0 012.333-4.781 15.622 15.622 0 0117.75-5.802zm9.337 22.078a20.083 20.083 0 01-2.946 2.484 18.88 18.88 0 01-8.371 3.177 18.64 18.64 0 01-8.032 2.652 15.603 15.603 0 007.578.671 15.62 15.62 0 0010.225-6.3v-.05a16.161 16.161 0 001.546-2.634zm-25.211 4.673a16.2 16.2 0 004.835.81 15.797 15.797 0 002.416-.19c-5.043-1.184-9.161-4.382-11.726-8.609a16.161 16.161 0 004.475 7.99zM42.67 32.45c7.515 1.42 12.818 7.985 13.177 15.506a18.85 18.85 0 00-5.537-6.325 18.46 18.46 0 00-6.274-2.966 18.805 18.805 0 00-7.882-4.087 18.831 18.831 0 00-3.914-.532 16 16 0 017.43-1.875c1.006.002 2.01.095 3 .28zm-4.427 5.667a16.203 16.203 0 00-5.833-1.176 15.81 15.81 0 00-4.81.761 17.2 17.2 0 00-4.305 9.842c.33-.584.692-1.152 1.085-1.703a18.461 18.461 0 0113.863-7.724zM20.941 54.93a18.993 18.993 0 002.262 11.132A16.2 16.2 0 0119.64 43.48a15.81 15.81 0 013.232-3.31 19.822 19.822 0 00-2.192 6.08 20.19 20.19 0 00.26 8.68zm6.91 16.695A19.1 19.1 0 0116.59 41.77a18.59 18.59 0 0111.065-7.297A19.84 19.84 0 0129 33.47a18.76 18.76 0 0126.35 5.19l.02.03a20.08 20.08 0 012.607 16.046A18.8 18.8 0 0154.52 68.13a18.48 18.48 0 01-15.01 7.66 18.42 18.42 0 01-11.659-4.165zM76.8 48.12a20.205 20.205 0 00-.48-2.34l-1.43-5.16h-2l-1.4 5.19c-.207.736-.37 1.484-.49 2.24a12.497 12.497 0 00-.24-2.15l-1.25-5.28h-2L70 50.14h1.91l1.72-6.07a7.83 7.83 0 00.28-1.72 7.18 7.18 0 00.29 1.72l1.65 6.07h2l2.49-9.52h-2l-1.24 5.16a10.412 10.412 0 00-.3 2.34zm12.54-2.72a3 3 0 10-5.999 0 3 3 0 005.999 0zm.66 3.53a5.16 5.16 0 01-6.83.32 4.94 4.94 0 01-.37-7.38 5.17 5.17 0 017.2 0 4.95 4.95 0 010 7.06zm7.5-5.46c0 1.1-.74 1.21-2 1.21h-.31v-2.5h.31c1.27 0 2 .19 2 1.29zm-2.31 2.22l2.5 4.45H100l-2.55-4.33a2.42 2.42 0 002.12-2.49c0-1.8-1.14-2.7-3.46-2.7h-2.92v9.52h2v-4.45zm6.04-5.07h2.04v7.79h3.25v1.73h-5.29v-9.52zm12.83 4.8c0 2.12-.99 3-3.06 3l-1.14.07v-6.07H111c2.06 0 3.06.88 3.06 3zm-3.64-4.8h-2.59l-.03 9.52h2.81a6 6 0 003.79-.88 4.54 4.54 0 001.78-3.86 4.54 4.54 0 00-1.76-3.85 6.22 6.22 0 00-4-.93zM130 45.78c.206.77.366 1.551.48 2.34a9.83 9.83 0 01.31-2.34l1.21-5.16h2l-2.48 9.52h-2l-1.71-6.07a7.17 7.17 0 01-.29-1.72 7.83 7.83 0 01-.28 1.72l-1.72 6.07h-2l-2.49-9.52h2l1.25 5.28c.152.708.242 1.427.27 2.15.119-.755.283-1.503.49-2.24l1.4-5.19h2l1.56 5.16zm5.35-5.16h2.04v9.52h-2.04v-9.52zm7.38 7.8c2.08 0 3.06-.88 3.06-3s-1-3-3.06-3h-1.13v6.07l1.13-.07zm-3.17-7.8h2.6a6.24 6.24 0 014 .93 4.575 4.575 0 011.75 3.85 4.52 4.52 0 01-1.78 3.86 5.92 5.92 0 01-3.78.88h-2.76l-.03-9.52zm15.64 0h-5.6v9.52h5.6v-1.73h-3.57v-2.39h3.57v-1.73h-3.57v-1.95h3.57v-1.72zm14.12 5.16c.211.769.371 1.55.48 2.34.014-.79.118-1.574.31-2.34l1.24-5.16h2l-2.49 9.52h-2l-1.7-6.07a7.125 7.125 0 01-.3-1.72 7.83 7.83 0 01-.28 1.72l-1.72 6.07H163l-2.49-9.52h2l1.26 5.28c.144.709.231 1.428.26 2.15.127-.755.294-1.503.5-2.24l1.39-5.19h2l1.4 5.16zm10.97-5.16h-5.61v9.52h5.61v-1.73h-3.57v-2.39h3.57v-1.73h-3.57v-1.95h3.57v-1.72zm4.84 7.93c1 0 1.56-.46 1.56-1.31 0-.85-.52-1.24-1.53-1.24h-.83v2.55h.8zm-.35-4.12c1.13 0 1.69-.26 1.69-1.14 0-.88-.5-1.1-1.65-1.1h-.49v2.24h.45zm-2.49-3.81h1.79a6.64 6.64 0 013.13.46 2.25 2.25 0 011.16 2c0 1.14-.67 1.82-2 2 1.54.23 2.33 1 2.33 2.29a2.446 2.446 0 01-1.27 2.19 7.44 7.44 0 01-3.58.53h-1.56v-9.47zM74.45 56.61h-4.71v9.52h.87v-4.91h3.7v-.82h-3.7v-2.98h3.84v-.81zm11.08 4.78a4.18 4.18 0 10-4.19 4.22 4.2 4.2 0 004.19-4.22zM85 64.92a5.12 5.12 0 01-3.61 1.46 5.06 5.06 0 01-3.59-1.46 5 5 0 010-7.09 5.22 5.22 0 017.2 0 5 5 0 010 7.09zm4.47-2.09v-6.22h-.85v5.94c0 2.57 1.13 3.83 3.46 3.83s3.47-1.26 3.47-3.83v-5.94h-.87v6.22c0 1.86-.83 2.78-2.6 2.78s-2.61-.92-2.61-2.78zm8.71-6.62l6.73 7.96v-7.56h.82v9.8l-6.74-7.98v7.7h-.81v-9.92zm12.33 9.17H110l-.77-.02v-8h1c1.57 0 2.69 0 3.57 1a4.46 4.46 0 011 3 4.135 4.135 0 01-1.44 3.48 4.74 4.74 0 01-2.85.54zm-.67-8.77h-1.47l.03 9.52h1.88c1.54 0 2.77-.04 3.86-.88a4.691 4.691 0 001.62-3.88 4.62 4.62 0 00-2-4.14c-1.01-.62-2.28-.62-3.92-.62zm12.34 5.55L120.55 58l-1.69 4.14 3.32.02zm-1.58-5.93l4 9.9h-.94l-1.21-3.22h-3.89l-1.27 3.22h-.88l4.19-9.9zm3.7 1.19h2.63v8.71h.86v-8.71h2.62v-.81h-6.11v.81zm8.72-.81h-.87v9.52h.87v-9.52zm10.756 2.469c.464.682.716 1.486.724 2.31a4.187 4.187 0 01-1.216 2.977 4.201 4.201 0 01-2.964 1.244 4.178 4.178 0 01-4.102-4.981 4.182 4.182 0 013.262-3.294 4.181 4.181 0 014.296 1.744zm-3.456 7.3a5.121 5.121 0 003.6-1.46 4.938 4.938 0 000-7.09 5.221 5.221 0 00-7.2 0 5.003 5.003 0 00-1.091 5.465 5.003 5.003 0 002.745 2.715 5.06 5.06 0 001.946.37zm7.31-10.169l6.74 7.96v-7.56h.81v9.8l-6.74-7.98v7.7h-.81v-9.92z" clip-rule="evenodd"/>
</svg>
